<?xml version="1.0" encoding="UTF-8"?>
<map version="1.10" tiledversion="1.11.2" orientation="orthogonal" renderorder="left-up" width="16" height="16" tilewidth="16" tileheight="16" infinite="0" nextlayerid="5" nextobjectid="24">
 <tileset firstgid="1" name="floorswalls_LRK" tilewidth="16" tileheight="16" tilecount="224" columns="14">
  <image source="../assets/pixelinterior_LRK/floorswalls_LRK.png" width="224" height="256"/>
 </tileset>
 <tileset firstgid="225" source="../assets/pixelinterior_LRK/kitchen_LRK.tsx"/>
 <tileset firstgid="875" name="livingroom_LRK" tilewidth="16" tileheight="16" tilecount="1014" columns="39">
  <image source="../assets/pixelinterior_LRK/livingroom_LRK.png" width="624" height="416"/>
 </tileset>
 <tileset firstgid="1889" name="cabinets_LRK" tilewidth="16" tileheight="16" tilecount="1175" columns="47">
  <image source="../assets/pixelinterior_LRK/cabinets_LRK.png" width="752" height="405"/>
 </tileset>
 <tileset firstgid="3064" name="kitchen_LRK" tilewidth="16" tileheight="16" tilecount="650" columns="26">
  <image source="../assets/pixelinterior_LRK/kitchen_LRK.png" width="416" height="400"/>
 </tileset>
 <layer id="1" name="Floor" width="16" height="16">
  <data encoding="csv">
24,25,25,25,25,25,25,25,25,25,25,25,25,25,25,27,
38,39,39,39,39,39,39,39,39,39,39,39,39,39,39,41,
52,52,52,52,52,52,52,52,52,52,52,52,52,52,52,55,
66,66,66,66,66,66,66,66,66,66,66,66,66,66,66,69,
80,80,81,81,81,81,81,81,81,81,81,81,81,81,81,83,
94,95,95,95,95,95,95,95,95,95,95,95,95,95,95,97,
94,95,95,95,95,95,95,95,95,95,95,95,95,95,95,97,
94,95,95,95,95,95,95,95,95,95,95,95,95,95,95,97,
94,95,95,95,95,95,95,95,95,95,95,95,95,95,95,97,
94,95,95,95,95,95,95,95,95,95,95,95,95,95,95,97,
94,95,95,95,95,95,95,95,95,95,95,95,95,95,95,97,
94,95,95,95,95,95,95,95,95,95,95,95,95,95,95,97,
94,95,95,95,95,95,95,95,95,95,95,95,95,95,95,97,
94,95,95,95,95,95,95,95,95,95,95,95,95,95,95,97,
94,95,95,95,95,95,95,95,95,95,95,95,95,95,95,97,
108,110,110,110,110,110,110,110,110,110,110,110,110,110,110,111
</data>
 </layer>
 <layer id="2" name="tiles" width="16" height="16">
  <data encoding="csv">
0,0,0,0,0,0,0,0,0,0,0,0,0,0,0,0,
0,0,3128,3129,3130,3131,3132,3133,3134,3135,0,0,0,0,0,0,
0,0,3154,3155,3156,3157,3158,3159,3160,3161,0,0,0,3112,3113,0,
3066,3067,3068,3069,3070,3071,3072,3069,3070,0,0,0,0,3138,3139,0,
3092,360,361,3095,3096,367,368,358,359,3199,3200,3201,3202,3164,3165,0,
3118,3119,3120,3121,3122,393,394,3121,3122,3225,3226,3227,3228,3190,3191,0,
3144,3145,3146,3147,3148,419,420,3147,3148,3251,3252,3253,3254,0,0,0,
3170,0,0,3173,3174,3175,3176,0,0,1994,1994,1994,1994,1994,0,0,
0,0,0,0,0,0,0,0,0,1994,1994,1994,1994,1994,0,0,
0,0,0,0,0,0,0,0,0,1994,1994,1994,1994,1994,0,0,
0,0,0,0,0,0,0,0,0,1994,1994,1994,1994,1994,0,0,
0,0,0,0,0,0,0,0,0,1994,1994,1994,1994,1994,0,0,
1040,1041,1192,1193,1043,1044,1045,0,0,0,0,0,0,0,0,0,
1079,1080,1231,1232,1082,1083,1084,0,0,0,0,0,0,0,0,0,
1118,1119,1270,1271,1121,1122,1123,0,0,0,0,0,0,0,0,0,
1157,1158,1309,1310,1160,1161,1162,0,0,0,0,0,0,0,0,0
</data>
 </layer>
 <layer id="3" name="active tiles" width="16" height="16" visible="0">
  <data encoding="csv">
0,0,0,0,0,0,0,0,0,0,0,0,0,0,0,0,
0,0,0,0,0,0,0,0,0,0,0,0,0,0,0,0,
0,0,0,0,0,0,0,0,0,0,0,0,0,0,0,0,
0,0,0,0,0,0,0,0,0,0,0,0,0,0,0,0,
0,0,0,373,374,370,371,373,374,0,0,0,0,0,0,0,
0,0,0,0,0,396,397,0,0,0,0,0,0,0,0,0,
0,0,0,0,0,422,423,0,0,0,0,0,0,0,0,0,
0,0,0,0,0,0,0,0,0,0,0,0,0,0,0,0,
0,0,0,0,0,0,0,0,0,0,0,0,0,0,0,0,
0,0,0,0,0,0,0,0,0,0,0,0,0,0,0,0,
0,0,0,0,0,0,0,0,0,0,0,0,0,0,0,0,
0,0,0,0,0,0,0,0,0,0,0,0,0,0,0,0,
0,0,0,0,0,0,0,0,0,0,0,0,0,0,0,0,
0,0,0,0,0,0,0,0,0,0,0,0,0,0,0,0,
0,0,0,0,0,0,0,0,0,0,0,0,0,0,0,0,
0,0,0,0,0,0,0,0,0,0,0,0,0,0,0,0
</data>
 </layer>
 <objectgroup id="4" name="collisions">
  <object id="1" name="order" x="34.0418" y="208.411" width="27.5" height="47.2349"/>
  <object id="2" x="-0.70825" y="96.5476" width="14.75" height="8.5"/>
  <object id="3" x="-0.33325" y="79.7976" width="14.75" height="16.75"/>
  <object id="4" x="-0.08325" y="64.6726" width="15.25" height="15.25"/>
  <object id="5" name="table" x="144.416" y="64.6726" width="15.1667" height="14.75"/>
  <object id="6" name="table" x="160.266" y="64.6726" width="15.15" height="14.5"/>
  <object id="7" name="table" x="176.166" y="64.6726" width="23.25" height="14.5"/>
  <object id="8" name="sink" x="48.9168" y="64.4226" width="30.8431" height="15.25"/>
  <object id="9" name="sink" x="112.369" y="64.4226" width="31.0469" height="15.25"/>
  <object id="10" name="gas-stove" x="16.2236" y="63.7379" width="31.4375" height="16.0502"/>
  <object id="11" x="-0.45825" y="105.297" width="14.75" height="18.25"/>
  <object id="14" name="fridge" x="211.791" y="40.7976" width="24.25" height="54.8125"/>
  <object id="15" x="0.04175" y="208.502" width="33.75" height="47.1136"/>
  <object id="16" x="61.9168" y="208.354" width="33.75" height="47.3182"/>
  <object id="17" x="-21.5415" y="0.047625" width="21" height="306.334"/>
  <object id="18" x="-21.0907" y="-20.2146" width="372.917" height="19.7503"/>
  <object id="20" name="player" x="91.8753" y="162.979">
   <point/>
  </object>
  <object id="21" x="-20.7914" y="256.771" width="278" height="50"/>
  <object id="22" x="256.365" y="-17.4883" width="95.334" height="326"/>
  <object id="23" name="cooking_place" x="80.9079" y="63.9794" width="30.0924" height="28.7841"/>
 </objectgroup>
</map>
