<?xml version="1.0" encoding="UTF-8"?>
<map version="1.10" tiledversion="1.11.2" orientation="orthogonal" renderorder="right-down" width="5" height="5" tilewidth="16" tileheight="16" infinite="0" nextlayerid="5" nextobjectid="16">
 <tileset firstgid="1" source="../assets/pixelinterior_LRK/floorswalls_LRK.tsx"/>
 <tileset firstgid="225" source="../assets/pixelinterior_LRK/kitchen_LRK.tsx"/>
 <tileset firstgid="875" name="Sprite-0002" tilewidth="16" tileheight="16" tilecount="1" columns="1">
  <image source="../assets/Sprite-0002.png" width="16" height="16"/>
 </tileset>
 <layer id="1" name="Слой тайлов 1" width="5" height="5">
  <data encoding="csv">
78,77,78,78,78,
90,91,91,91,93,
90,91,91,91,93,
90,91,91,91,93,
78,105,105,105,107
</data>
 </layer>
 <layer id="2" name="Слой тайлов 2" width="5" height="5">
  <data encoding="csv">
255,256,257,258,259,
0,0,0,0,0,
0,0,0,0,0,
0,273,274,0,0,
255,299,300,0,0
</data>
 </layer>
 <layer id="4" name="Слой тайлов 3" width="5" height="5">
  <data encoding="csv">
0,0,0,0,0,
0,0,0,0,0,
0,0,0,0,0,
0,0,0,0,0,
875,0,0,0,0
</data>
 </layer>
 <objectgroup id="3" name="Слой объектов 1">
  <object id="1" x="-5.125" y="-5.125" width="5" height="90.5"/>
  <object id="2" x="80.25" y="-5.125" width="5" height="90.625"/>
  <object id="3" x="-0.25" y="-5.25" width="80" height="5"/>
  <object id="4" x="0.125" y="80.375" width="80" height="5"/>
  <object id="5" name="order" x="0" y="64.25" width="16" height="16"/>
  <object id="7" name="cooking_place" x="48" y="0" width="31" height="15"/>
  <object id="8" name="table" x="0" y="0" width="16" height="15"/>
  <object id="10" name="sink" x="17.625" y="0" width="30" height="15"/>
  <object id="12" name="fridge" x="19.625" y="65.0163" width="25" height="15.6087"/>
  <object id="14" name="GarbageBin" type="trash" x="-22.9432" y="34.9886" width="16" height="16"/>
  <object id="15" name="player" x="34.5" y="42.25">
   <point/>
  </object>
 </objectgroup>
</map>
